X: 152089
T: Old Schoolhouse (The)
C: Joe Liddy
Z: BB
S: "The Leitrim Fiddler" (Dublin 1981)
N: Uses dotted rhythm
L: 1/8
M: 4/4
R: hornpipe
Q: 1/4 = 160
K: G
DG | (3Bcd BG EcAF | GDB,D GBdB | cBcd efgf | afge dBcA |
(3Bcd BG EcAF | GDB,D GBdB | cdef gedc |1 BG (3AGF G2 :|
[2 (3BAG (3AGF G2 ||
(3cBc | ABcd efgf | agfe dABc | dg (3gfg edcB | AGFE DFAF |
GBdB cdec | dg (3gfg dBGB | cdef gedc | BG (3AGF G2 (3cBc |
ABcd efgf | agfe dABc | dg (3gfg edcB | AGFE DFAF |
GB (3dcB cd (3edc | df (3gfe dBGB | cdef gedc | (3BAG (3AGF G4 ||
%%%%%%%%%%%%%%%%%%%%%%%%%%%
